X:1209
T:Dance
C:anon.
O:France
Z:Transcribed by Frank Nordberg - http://www.musicaviva.com
F:http://abc.musicaviva.com/tunes/france/french-dance01/french-dance01-1.abc
M:3/4
L:1/4
K:G
D|G2A|BcB|AB/A/G/A/|BGD|\
G2A|BcB|AA/G/A/B/|G2B|\
A2F|D2B|A2F|D2D|\
G2A|BcB|AB/A/G/A/|BGD|\
G2A|BcB|AA/G/A/B/|G2|]
W:
W:
W:  From Musica Viva - http://www.musicaviva.com
W:  the Internet center for free sheet music downloads.
